assets/svg/1F621.svg

<svg xmlns="http://www.w3.org/2000/svg" viewBox="0 0 64 64" enable-background="new 0 0 64 64"><circle fill="#df394c" cx="31.981" cy="31.981" r="31.981"/><path fill="#fff" d="m36.11 31.6c0 5.378 2.909 9.732 6.5 9.732 3.59 0 6.499-4.354 6.499-9.732 0-5.376-2.909-9.733-6.499-9.733-3.59 0-6.5 4.357-6.5 9.733"/><path fill="#25333a" d="m38.4 31.6c0 2.816 1.88 5.1 4.205 5.1 2.324 0 4.204-2.283 4.204-5.1s-1.88-5.1-4.204-5.1c-2.325 0-4.205 2.283-4.205 5.1"/><path fill="#681624" d="m34.432 27.462c1.882-6.693 10.438-10.232 16.814-10.303 1.863-.022 2.287 2.885.397 2.905-5.368.061-12.857 2.251-14.473 7.997-.513 1.82-3.246 1.202-2.738-.599"/><g opacity=".6"><path fill="#be212f" d="m15.221 41.24c-5.666-12.159-5.921-25.25-.796-36.07-8.682 5.72-14.425 15.541-14.425 26.718 0 17.66 14.318 31.977 31.983 31.977.316 0 .62-.035.934-.047-7.329-6.171-13.507-13.596-17.696-22.581"/></g><path fill="#fff" d="m27.369 31.27c0 5.378-2.909 9.732-6.5 9.732-3.591 0-6.5-4.354-6.5-9.732 0-5.375 2.909-9.732 6.5-9.732 3.591-.0001 6.5 4.356 6.5 9.732"/><ellipse fill="#25333a" cx="20.87" cy="31.27" rx="4.205" ry="5.1"/><g fill="#681624"><path d="m29.04 27.13c-1.882-6.693-10.438-10.232-16.815-10.304-1.862-.021-2.287 2.886-.397 2.905 5.368.061 12.857 2.251 14.473 7.997.513 1.821 3.246 1.203 2.739-.598"/><path d="m21.428 51.703c-.63.719-.241 1.919.796 1.919 1.197 0 5.495-1.812 9.757-1.812 4.771 0 9.496 1.812 9.756 1.812 1.037 0 1.418-1.2.802-1.919-5.718-6.593-15.403-6.593-21.11 0"/></g></svg>

<?xml version="1.0" encoding="UTF-8" standalone="no"?>
<!-- Generator: Adobe Illustrator 16.0.0, SVG Export Plug-In . SVG Version: 6.00 Build 0)  -->

<svg
   xmlns:dc="http://purl.org/dc/elements/1.1/"
   xmlns:cc="http://creativecommons.org/ns#"
   xmlns:rdf="http://www.w3.org/1999/02/22-rdf-syntax-ns#"
   xmlns:svg="http://www.w3.org/2000/svg"
   xmlns="http://www.w3.org/2000/svg"
   xmlns:sodipodi="http://sodipodi.sourceforge.net/DTD/sodipodi-0.dtd"
   xmlns:inkscape="http://www.inkscape.org/namespaces/inkscape"
   version="1.1"
   id="Layer_1"
   x="0px"
   y="0px"
   width="64px"
   height="64px"
   viewBox="0 0 64 64"
   enable-background="new 0 0 64 64"
   xml:space="preserve"
   inkscape:version="0.48.5 r10040"
   sodipodi:docname="1F621.svg"
   inkscape:export-filename="D:\TESTINGEMOJI\SVGTEST\1F621.png"
   inkscape:export-xdpi="90"
   inkscape:export-ydpi="90"><metadata
   id="metadata5457"><rdf:RDF><cc:Work
       rdf:about=""><dc:format>image/svg+xml</dc:format><dc:type
         rdf:resource="http://purl.org/dc/dcmitype/StillImage" /><dc:title></dc:title></cc:Work></rdf:RDF></metadata><defs
   id="defs5455" /><sodipodi:namedview
   pagecolor="#ffffff"
   bordercolor="#666666"
   borderopacity="1"
   objecttolerance="10"
   gridtolerance="10"
   guidetolerance="10"
   inkscape:pageopacity="0"
   inkscape:pageshadow="2"
   inkscape:window-width="640"
   inkscape:window-height="480"
   id="namedview5453"
   showgrid="false"
   inkscape:zoom="3.6875"
   inkscape:cx="32"
   inkscape:cy="32"
   inkscape:window-x="733"
   inkscape:window-y="260"
   inkscape:window-maximized="0"
   inkscape:current-layer="Layer_1" />
<g
   id="g5395">
	<g
   id="g5397">
		<g
   id="g5399">
			<circle
   fill="#DF394C"
   cx="31.981"
   cy="31.981"
   r="31.981"
   id="circle5401" />
		</g>
	</g>
	<g
   id="g5403">
		<g
   id="g5405">
			<path
   fill="#FFFFFF"
   d="M36.106,31.6c0,5.378,2.909,9.732,6.5,9.732c3.59,0,6.499-4.354,6.499-9.732     c0-5.376-2.909-9.733-6.499-9.733C39.016,21.867,36.106,26.224,36.106,31.6z"
   id="path5407" />
		</g>
	</g>
	<g
   id="g5409">
		<g
   id="g5411">
			<path
   fill="#25333A"
   d="M38.401,31.6c0,2.816,1.88,5.1,4.205,5.1c2.324,0,4.204-2.283,4.204-5.1s-1.88-5.1-4.204-5.1     C40.281,26.5,38.401,28.783,38.401,31.6z"
   id="path5413" />
		</g>
	</g>
	<g
   id="g5415">
		<g
   id="g5417">
			<path
   fill="#681624"
   d="M34.432,27.462c1.882-6.693,10.438-10.232,16.814-10.303c1.863-0.022,2.287,2.885,0.397,2.905     c-5.368,0.061-12.857,2.251-14.473,7.997C36.657,29.881,33.924,29.263,34.432,27.462z"
   id="path5419" />
		</g>
	</g>
	<g
   opacity="0.6"
   id="g5421">
		<g
   id="g5423">
			<g
   id="g5425">
				<path
   fill="#BE212F"
   d="M15.221,41.237C9.555,29.078,9.3,15.989,14.425,5.17C5.743,10.89,0,20.711,0,31.888      c0,17.66,14.318,31.977,31.983,31.977c0.316,0,0.62-0.035,0.934-0.047C25.588,57.647,19.41,50.222,15.221,41.237z"
   id="path5427" />
			</g>
		</g>
	</g>
	<g
   id="g5429">
		<g
   id="g5431">
			<path
   fill="#FFFFFF"
   d="M27.369,31.268c0,5.378-2.909,9.732-6.5,9.732c-3.591,0-6.5-4.354-6.5-9.732     c0-5.375,2.909-9.732,6.5-9.732C24.46,21.535,27.369,25.892,27.369,31.268z"
   id="path5433" />
		</g>
	</g>
	<g
   id="g5435">
		<g
   id="g5437">
			<ellipse
   fill="#25333A"
   cx="20.87"
   cy="31.268"
   rx="4.205"
   ry="5.1"
   id="ellipse5439" />
		</g>
	</g>
	<g
   id="g5441">
		<g
   id="g5443">
			<path
   fill="#681624"
   d="M29.044,27.13c-1.882-6.693-10.438-10.232-16.815-10.304c-1.862-0.021-2.287,2.886-0.397,2.905     c5.368,0.061,12.857,2.251,14.473,7.997C26.818,29.549,29.551,28.931,29.044,27.13z"
   id="path5445" />
		</g>
	</g>
	<g
   id="g5447">
		<g
   id="g5449">
			<path
   fill="#681624"
   d="M21.428,51.703c-0.63,0.719-0.241,1.919,0.796,1.919c1.197,0,5.495-1.812,9.757-1.812     c4.771,0,9.496,1.812,9.756,1.812c1.037,0,1.418-1.2,0.802-1.919C36.821,45.11,27.136,45.11,21.428,51.703z"
   id="path5451" />
		</g>
	</g>
</g>
</svg>
